svg/transgender.svg

<svg xmlns="http://www.w3.org/2000/svg" viewBox="0 0 46 64" enable-background="new 0 0 46 64"><style type="text/css">.st0{fill:#333333;}</style><title>transgender</title><desc>Created with Sketch.</desc><path class="st0" d="M45.4.6c-.3-.4-.8-.6-1.4-.6h-14c-1.1 0-2 .9-2 2s.9 2 2 2h8.7l-7.5 7.5c-3.2-2.2-7-3.5-11.2-3.5-11 0-20 9-20 20 0 10.4 7.9 18.9 18 19.9v5.1h-4c-1.1 0-2 .9-2 2s.9 2 2 2h4v5c0 1.1.9 2 2 2s2-.9 2-2v-5h4c1.1 0 2-.9 2-2s-.9-2-2-2h-4v-5.1c10.1-1 18-9.5 18-19.9 0-5.4-2.2-10.3-5.7-13.9l7.7-7.7v9.6c0 1.1.9 2 2 2s2-.9 2-2v-14c0-.6-.2-1.1-.6-1.4zm-25.4 43.4c-8.8 0-16-7.2-16-16s7.2-16 16-16 16 7.2 16 16-7.2 16-16 16z"/></svg>

<svg xmlns="http://www.w3.org/2000/svg" viewBox="0 0 46 64"><path d="M45.4.6C45.1.2 44.6 0 44 0H30c-1.1 0-2 .9-2 2s.9 2 2 2h8.7l-7.5 7.5C28 9.3 24.2 8 20 8 9 8 0 17 0 28c0 10.4 7.9 18.9 18 19.9V53h-4c-1.1 0-2 .9-2 2s.9 2 2 2h4v5c0 1.1.9 2 2 2s2-.9 2-2v-5h4c1.1 0 2-.9 2-2s-.9-2-2-2h-4v-5.1c10.1-1 18-9.5 18-19.9 0-5.4-2.2-10.3-5.7-13.9L42 6.4V16c0 1.1.9 2 2 2s2-.9 2-2V2c0-.6-.2-1.1-.6-1.4zM20 44c-8.8 0-16-7.2-16-16s7.2-16 16-16 16 7.2 16 16-7.2 16-16 16z" fill="#333"/></svg>
